icons/note.svg

<svg width="24" height="24" viewBox="0 0 24 24" xmlns="http://www.w3.org/2000/svg">
    <path fill-rule="evenodd"
        d="M4 22C2.89543 22 2 21.1046 2 20L2 5C2 3.89543 2.89543 3 4 3L20 3C21.1046 3 22 3.89543 22 5L22 14.1716C22 14.702 21.7893 15.2107 21.4142 15.5858L15.5858 21.4142C15.2107 21.7893 14.702 22 14.1716 22L4 22ZM7 10H17V8H7V10ZM11 15H7V13H11V15ZM19 14L14 14L14 19L19 14Z" />
</svg>

<svg xmlns="http://www.w3.org/2000/svg" width="24" height="24" viewBox="0 0 24 24">
    <path
        d="M4 22c-1.105 0-2-.895-2-2V5c0-1.105.895-2 2-2h16c1.105 0 2 .895 2 2v9.172c0 .53-.21 1.039-.586 1.414l-5.828 5.828c-.375.375-.884.586-1.414.586H4zm3-12h10V8H7v2zm4 5H7v-2h4v2zm8-1h-5v5l5-5z" />
</svg>
